X: 35344
T: Rosewood
R: jig
M: 6/8
K: Gmajor
|:~g3 def|gdc BAG|~g3 Bcd|ecA A2f|gfe def|
gdc BAG|1 ~c3 Adc|BGF G2f:|2 ceg ABc|BGF G2F||
|:GBd GBd|ecB ~c2B|A^ce A^ce|fd^c ~d2f|gfe dcB|
edc BAG|1 ~c3 Adc|BGF G2F:|2 ~c3 ABc|ABc def||

